!!!ONB: MCCC : ILB0325_02 : Extracted Monophonic Melody
!!!COM: Beethoven, Ludwig van
!!!OPR: Violin Sonata No.4 in A minor
!!!OMV: 2
!!!SCT: Op.23
!!!ODT: 1800///
**kern
*staff1
*clefG2
*k[f#c#g#]
*A:
*M2/4
=9
8cc#
8dd
4r
=10
8ee
8ff#
4r
=11
8ee
8dd
8r
8cc#
=12
8r
8b
4r
=13
8cc#
8dd
4r
=14
8ee
8ff#
4r
=15
8aa
8gg#
8r
8dd#
=16
8r
8ee
4r
=17
4r
8dd#
8ee
=18
4r
8ff#
8ee
=19
4r
8ee#
8ff#
=20
4r
8gg
8ff#
=21
4r
8gg#
8aa
=22
4r
8bb
8aa
=23
4r
4ee
=24
4ee
4a
=25
8ee
8dd
4r
=26
8cc#
8b
4r
=27
8ff#
8ee
4r
=28
8dd
8cc#
4r
=29
8bb
8aa
4r
=30
8gg
8ff#
4r
=31
8aa
4cc#
8dd[
=32
16dd]
16b
8a
4r
=33
2r
=34
2r
=35
2r
=36
2r
=37
4B
8b
32b
32a
32b
32a
=38
32b
32a
32g#
32a
8g#[
16g#]
32b
32g#
8e
=39
8e
8f#[
16f#]
32a
32f#
8d#
=40
8d#
16e
16g#
16b
16a
16g#
16b
=41
16g#
16e
16a
16c#
16d
16e
16f#
16e
=42
16d
16c#
16d
16B
16c#
16d
16e
16d
=43
16c#
16B
8c#
4r
=44
4e
8ee
32ee
32dd
32ee
32dd
=45
32ee
32dd
32cc#
32dd
8cc#
8b
8a
=46
16b
16cc#
8f#
16b
16cc#
16dd#
16b
=47
16cc#
16dd#
16ee
16ff#
16gg#
16ff#
16aa
16gg#
=48
16ff#
16ee
16dd#
16cc#
16b
16cc#
16dd#
16b
=49
16cc#
16dd#
16ee
16ff#
16gg#
16ff#
16aa
16gg#
=50
16ff#
16ee
16dd#
16B
16d#
16f#
16b
16b
=51
16dd#
16ff#
8bb
4r
=52
2r
=53
2r
=54
2r
=55
2r
=56
32B
32A#
32B
32A#
8B
4B
=57
32B
32A#
32B
32A#
8B
4B
=58
16.B
32c#
16.d#
32e
16.f#
32g#
16.a
32f#
=59
16.b
32a
8g#
4b
=60
4r
8r
16.a
32f#
=61
16.b
32a
8g#
4b
=62
4r
8r
16.a
32f#
=63
16.b
32a
16.g#
32e
16.b
32a
16.g#
32e
=64
16.b
32a
16.g#
32e
16.ee
32dd#
16.cc#
32b
=65
16.a
32g#
8f#
4f#
=66
8d#
16.gg#
32ff#
16.ee
32dd#
16.cc#
32b
=67
16.a
32g#
8a
4aa
=68
8ff#
8ee
8r
8g#
=69
16r
16f#
8a
16r
16g#
8cc#
=70
16r
16b
4.dd#
=71
4ee
4a
=72
4f#
8g#
16b
16b
=73
16r
16b
16ee
16ee
16r
16ee
16ee
16ee
=74
16r
16ee
8a
4cc
=75
4b
4ff#
=76
8dd#
8ee
4r
=77
4.b
8b
=78
4b
8ee
8b
=79
8r
8b
8r
8b
=80
8b
8g#
4r
=81
4.bb
8bb
=82
4bb
8eee
8bb
=83
4.bb
8bb
=84
8bb
8gg#
16r
32r
64r
64aa#
8bb
=85
8r
8gg#
16r
32r
64r
64a#
8b
=86
8r
8g#
8r
8g#
=87
8g#
8g#
4r
=88
2r
=89
2r
=90
2r
=91
2r
=92
2r
=93
2r
=94
2r
=95
2r
=96
8cc#
8dd
4r
=97
8ee
8ff#
4r
=98
8ee
8dd
8r
8cc#
=99
8r
8b
4r
=100
8cc#
8dd
4r
=101
8ee
8ff#
4r
=102
8aa
8gg#
8r
8dd#
=103
8r
8ee
4r
=104
4r
8dd#
8ee
=105
4r
8ff#
8ee
=106
4r
8ee#
8ff#
=107
4r
8gg
8ff#
=108
4r
8gg#
8aa
=109
4r
8bb
8aa
=110
4r
4ee
=111
4ee
4a
=112
8ee
8dd
4r
=113
8cc#
8b
4r
=114
8ff#
8ee
4r
=115
8dd
8cc#
4r
=116
8bb
8aa
4r
=117
8gg
8ff#
4r
=118
8aa
4cc#
8dd[
=119
16dd]
16b
8a
4r
=120
2r
=121
2r
=122
2r
=123
2r
=124
4B
8b
32b
32a
32b
32a
=125
32b
32a
32g#
32a
8g#[
16g#]
32b
32g#
8e
=126
8e
8f#[
16f#]
32a
32f#
8d#
=127
8d#
16e
16g#
16b
16a
16g#
16b
=128
16g#
16e
16a
16c#
16d
16e
16f#
16e
=129
16d
16c#
16d
16B
16c#
16d
16e
16d
=130
16c#
16B
8c#
4r
=131
4e
8ee
32ee
32dd
32ee
32dd
=132
32ee
32dd
32cc#
32dd
8cc#
8b
8a
=133
16b
16cc#
8f#
16b
16cc#
16dd#
16b
=134
16cc#
16dd#
16ee
16ff#
16gg#
16ff#
16aa
16gg#
=135
16ff#
16ee
16dd#
16cc#
16b
16cc#
16dd#
16b
=136
16cc#
16dd#
16ee
16ff#
16gg#
16ff#
16aa
16gg#
=137
16ff#
16ee
16dd#
16B
16d#
16f#
16b
16b
=138
16dd#
16ff#
8bb
4r
=139
2r
=140
2r
=141
2r
=142
2r
=143
32B
32A#
32B
32A#
8B
4B
=144
32B
32A#
32B
32A#
8B
4B
=145
16.B
32c#
16.d#
32e
16.f#
32g#
16.a
32f#
=146
16.b
32a
8g#
4b
=147
4r
8r
16.a
32f#
=148
16.b
32a
8g#
4b
=149
4r
8r
16.a
32f#
=150
16.b
32a
16.g#
32e
16.b
32a
16.g#
32e
=151
16.b
32a
16.g#
32e
16.ee
32dd#
16.cc#
32b
=152
16.a
32g#
8f#
4f#
=153
8d#
16.gg#
32ff#
16.ee
32dd#
16.cc#
32b
=154
16.a
32g#
8a
4aa
=155
8ff#
8ee
8r
8g#
=156
16r
16f#
8a
16r
16g#
8cc#
=157
16r
16b
4.dd#
=158
4ee
4a
=159
4f#
8g#
16b
16b
=160
16r
16b
16ee
16ee
16r
16ee
16ee
16ee
=161
16r
16ee
8a
4cc
=162
4b
4ff#
=163
8dd#
8ee
4r
=164
4.b
8b
=165
4b
8ee
8b
=166
8r
8b
8r
8b
=167
8b
8g#
4r
=168
4.bb
8bb
=169
4bb
8eee
8bb
=170
4.bb
8bb
=171
8bb
8gg#
16r
32r
64r
64aa#
8bb
=172
8r
8gg#
16r
32r
64r
64a#
8b
=173
8r
8g#
8r
8g#
=174
8g#
8g#
4r
=175
8cc#
8cc#
4r
=176
8cc#
8cc#
4r
=177
8cc#
8cc#
8r
8cc#
=178
8r
8cc#
4r
=179
2r
=180
2r
=181
8c#
4.cc#
=182
4ff#
4ee#
=183
2r
=184
4d
8dd
32dd
32cc
32dd
32cc
=185
32dd
32cc
32b
32cc
8b
8a
8b
=186
8cc#
4.dd
=187
8dd
8cc
8b
8cc
=188
8dd#
4.ee
=189
8ee
8dd
8cc#
8dd
=190
4ee#
8ff#
32ff#
32ee
32ff#
32ee
=191
32ff#
32ee
32dd
32ee
8r
8dd
32dd
32cc#
32dd
32cc#
=192
32dd
32cc#
32b
32cc#
8b
4r
=193
2r
=194
4.ee
32ee
32dd
32ee
32dd
=195
32ee
32dd
32cc
32dd
8r
8cc
32cc
32b
32cc
32b
=196
32cc
32b
32a
32b
8a
4r
=197
8a#
8a
8c#
8d
=198
8A
8G#
4r
=199
8ee#
8ee
4r
=200
8ff#
8ee
4r
=201
8ee#
8ee
4r
=202
8ff#
8ee
4r
=203
8ff#
8gg#
4r
=204
8ccc#
8ddd
4r
=205
8aa
8gg#
4r
=206
8dd
8cc#
4r
=207
8g#
8f#
4r
=208
8e
8d
4r
=209
8e
8d
4r
=210
8e
8d
4r
=211
2aa[
=212
2aa]
=213
16eee
16eee
16eee
16ddd#
16eee
16eee
16eee
16ddd#
=214
16eee
16eee
16eee
16bb
16gg#
16ee
16b
16e
=215
2aa[
=216
2aa]
=217
16aa
16aa
16gg#
16bb
16gg#
16ee
16dd#
16b
=218
16a
16f#
16e
16g#
16b
16ee
8e
=219
8cc#
8dd
4r
=220
8ee
8ff#
4r
=221
8ee
8dd
8r
8cc#
=222
8r
8b
4r
=223
8cc#
8dd
4r
=224
8ee
8ff#
4r
=225
8aa
8gg#
8r
8dd#
=226
8r
8ee
4r
=227
8r
16r
16dd#
16ee
16dd#
8ee
=228
8r
16r
16ff#
16ee
16ff#
8ee
=229
8r
16r
16ee#
16ff#
16ee#
8ff#
=230
8r
16r
16gg
16ff#
16gg
8ff#
=231
8r
16r
16gg#
16aa
16gg#
8aa
=232
8r
16r
16bb
16aa
16bb
16aa
16bb
=233
16aa
16bb
16aa
16eee
16ccc#
16aa
16gg#
16ee
=234
16dd
16b
16a
16e
16c#
16e
8A
=235
8ee
8dd
4r
=236
8cc#
8b
4r
=237
8ff#
8ee
4r
=238
8dd
8cc#
4r
=239
8bb
8aa
4r
=240
8gg
8ff#
4r
=241
8aa
4cc#
8dd[
=242
16dd]
16b
16a
16e
16f#
16g#
16a
16b
=243
16cc#
8.dd
8ee
32ee
32dd
32ee
32dd
=244
32ee
32dd
32cc#
32dd
8cc#[
16cc#]
32ee
32cc#
8a
=245
8a
8b[
16b]
32dd
32b
8g#
=246
8g#
16a
16cc#
16ee
16dd
16cc#
16b
=247
16a
16g
16f#
16a
16f#
16d
16c#
16e
=248
16c#
16A
16d
16f#
16g
16a
16b
16a
=249
16g
16f#
16g
16e
16f#
16g
16a
16g
=250
16f#
16e
16f#
16a
16g
16f#
16e
16c#
=251
16d
16e
16f#
16ff#
16ee
16dd
16cc#
16a#
=252
16b
16cc#
16dd
16ee
16ff#
16ee
16dd
16ee
=253
16dd
16cc#
16b
16a
16g#
16a
16b
16g#
=254
16a
16b
16cc#
16dd
16ee
16dd
16ff#
16ee
=255
16dd
16cc#
16b
16a
16g#
16a
16b
16g#
=256
16a
16b
16cc#
16dd
16ee
16dd
16ff#
16ee
=257
16dd
16cc#
16b
16e
16g#
16b
16ee
16ee
=258
16gg#
16bb
8eee
4r
=259
2r
=260
2r
=261
2r
=262
2r
=263
32e
32d#
32e
32d#
8e
4e
=264
32e
32d#
32e
32d#
8e
4e
=265
16.e
32f#
16.g#
32a
16.b
32cc#
16.dd
32b
=266
16.ee
32dd
8cc#
8ee
16.ee
32cc#
=267
16.ff#
32ee
8dd
4b
=268
4r
8r
16.ee
32cc#
=269
16.ff#
32ee
16dd[
16dd]
4b[
=270
8b]
8cc#
8b
8cc#
=271
8b
16cc#
32r
32a
16.aa
32gg#
16.ff#
32ee
=272
16.dd
32cc#
8b
4b
=273
8g#
16.ccc#
32bb
16.aa
32gg#
16.ff#
32ee
=274
16.dd
32cc#
8b
4ddd
=275
8bb
8aa
8r
8cc#
=276
16r
16b
8dd
16r
16cc#
8ff#
=277
16r
16ee
4.gg#
=278
4aa
4dd
=279
4b
8cc#
16ee
16ee
=280
16r
16ee
16aa
16aa
16r
16aa
16aa
16aa
=281
16r
16aa
4.ddd
=282
4ccc#
4bb
=283
8gg#
8aa
4r
=284
4.ee
8ee
=285
4ee
8aa
8ee
=286
4.ee
8ee
=287
8ee
8cc#
4r
=288
4.e
8e
=289
4e
8a
8e
=290
4.e
8e
=291
8e
8c#
16r
32r
64r
64d#
8e
=292
8r
8c#
16r
32r
64r
64dd#
8ee
=293
8r
8cc#
8r
8e
=294
8e
8e
4r
=295
4A
4r
==
*-
